X:1
T: Sheriff Muir
C:
R:Strathspey
Q: 128
K:A
M:4/4
L:1/16
|:e4 e3d c3d e4|B3c dc3 B3c d4|e6 d2 c3d e4|A3B c3A B4 A4|
e4 e3d c3d e4|B3c dc3 B3c d4|e6 d2 c3d e4|A3B c3A B4 A4|
c3A ((3A2B2A2) c3A c4|d3B ((3B2c2B2) d3B d4|c3A ((3A2B2A2) c3A c4|A3B c3A B4 A4|
c3A ((3A2B2A2) c3A c4|d3B ((3B2c2B2) d3B d4|c3A ((3A2B2A2) c3A c4|A3B c3A B4 A4:|
